shared/images/iconfont/21-kb-iconfont-crown-admin-16.svg

<svg height="16" viewBox="0 0 16 16" width="16" xmlns="http://www.w3.org/2000/svg"><path d="m3 15h10a1 1 0 1 0 0-2h-10a1 1 0 1 0 0 2zm12-10.993a.997.997 0 0 1 .093 1.99l-1.093 6.011h-12l-1.093-6.011a.999.999 0 1 1 1.076-.824c1.321.504 3.16 1.21 3.16 1.21l2.203-3.888a1.334 1.334 0 1 1 1.309 0l2.202 3.887 3.16-1.206a.986.986 0 0 1 .983-1.169zm-7 3.493-1.414 1.414 1.414 1.414 1.414-1.414z"/></svg>

<svg xmlns="http://www.w3.org/2000/svg" width="16" height="16" viewBox="0 0 16 16">
    <path fill="#000" fill-rule="nonzero" d="M3 15h10a1 1 0 1 0 0-2H3a1 1 0 1 0 0 2zM15 4.007a.997.997 0 0 1 .093 1.99L14 12.008H2L.907 5.997a.999.999 0 1 1 1.076-.824c1.321.504 3.16 1.21 3.16 1.21l2.203-3.888a1.334 1.334 0 1 1 1.309 0l2.202 3.887 3.16-1.206A.986.986 0 0 1 15 4.007zM8 7.5L6.586 8.914 8 10.328l1.414-1.414L8 7.5z"/>
</svg>
